pro/src/pages/Homepage/assets/background.svg

<svg width="826" height="181" viewBox="0 0 826 181" fill="none" xmlns="http://www.w3.org/2000/svg">
<g clip-path="url(#clip0_8002_187500)">
<rect width="826" height="181" rx="8" fill="url(#paint0_linear_8002_187500)"/>
<path opacity="0.7" fill-rule="evenodd" clip-rule="evenodd" d="M543.703 137.382C542.615 138.038 541.215 137.732 540.484 136.713L540.374 136.546L537.631 131.989L533.077 134.73C531.927 135.422 530.435 135.053 529.745 133.906C529.09 132.818 529.393 131.419 530.411 130.688L530.577 130.578L535.133 127.838L531.889 122.45C531.196 121.298 531.563 119.806 532.707 119.117C533.797 118.461 535.196 118.767 535.926 119.785L536.036 119.952L539.28 125.341L544.664 122.101C545.814 121.409 547.305 121.776 547.994 122.922C548.65 124.011 548.347 125.411 547.329 126.141L547.162 126.251L541.779 129.492L544.522 134.049C545.215 135.2 544.848 136.694 543.703 137.382Z" fill="#F1F1F4"/>
<path opacity="0.2" d="M639.77 38.4072C638.218 38.532 637 39.8236 637 41.3998C637 43.0582 638.351 44.4031 640.017 44.4031L646.616 44.4031L646.616 52.1974L646.627 52.4439C646.752 53.9942 648.046 55.2129 649.622 55.2129C651.282 55.2129 652.626 53.8619 652.626 52.1974L652.626 44.4016L660.429 44.4016L660.675 44.3925C662.229 44.2677 663.447 42.9745 663.447 41.3998C663.447 39.7415 662.096 38.398 660.429 38.398L652.626 38.398L652.628 31.8027L652.617 31.5562C652.492 30.0059 651.199 28.7872 649.622 28.7872C647.962 28.7872 646.616 30.1382 646.616 31.8027L646.616 38.3965L640.017 38.3965L639.77 38.4072Z" fill="#F1F1F4"/>
<path fill-rule="evenodd" clip-rule="evenodd" d="M229.729 165.722C230.938 166.112 231.628 167.368 231.34 168.588L231.286 168.781L229.654 173.843L234.713 175.474C235.99 175.886 236.692 177.253 236.282 178.527C235.892 179.736 234.638 180.427 233.418 180.14L233.226 180.087L228.167 178.454L226.237 184.44C225.824 185.719 224.459 186.423 223.188 186.013C221.977 185.623 221.289 184.367 221.576 183.148L221.629 182.955L223.559 176.968L217.579 175.04C216.302 174.628 215.599 173.262 216.01 171.99C216.4 170.78 217.654 170.088 218.874 170.376L219.066 170.43L225.046 172.357L226.679 167.295C227.091 166.016 228.458 165.312 229.729 165.722Z" fill="#F1F1F4"/>
<path d="M269.028 154.56C269.867 151.958 272.654 150.529 275.253 151.367C277.852 152.205 279.279 154.993 278.44 157.595C277.601 160.196 274.814 161.625 272.215 160.787C269.616 159.949 268.189 157.161 269.028 154.56Z" fill="#F1F1F4" fill-opacity="0.7"/>
</g>
<defs>
<linearGradient id="paint0_linear_8002_187500" x1="732.79" y1="24.7721" x2="196.832" y2="530.63" gradientUnits="userSpaceOnUse">
<stop stop-color="#6123DF"/>
<stop offset="1" stop-color="#280078"/>
</linearGradient>
<clipPath id="clip0_8002_187500">
<rect width="826" height="181" rx="8" fill="white"/>
</clipPath>
</defs>
</svg>

<svg xmlns="http://www.w3.org/2000/svg" width="826" height="181" fill="none"><g clip-path="url(#clip0_8002_187500)"><rect width="826" height="181" fill="url(#paint0_linear_8002_187500)" rx="8"/><path fill="#F1F1F4" fill-rule="evenodd" d="M543.703 137.382a2.425 2.425 0 0 1-3.219-.669l-.11-.167-2.743-4.557-4.554 2.741a2.427 2.427 0 0 1-3.332-.824 2.425 2.425 0 0 1 .666-3.218l.166-.11 4.556-2.74-3.244-5.388a2.43 2.43 0 0 1 .818-3.333 2.425 2.425 0 0 1 3.219.668l.11.167 3.244 5.389 5.384-3.24a2.425 2.425 0 0 1 3.33.821 2.425 2.425 0 0 1-.665 3.219l-.167.11-5.383 3.241 2.743 4.557a2.427 2.427 0 0 1-.819 3.333" clip-rule="evenodd" opacity=".7"/><path fill="#F1F1F4" d="M639.77 38.407A3.007 3.007 0 0 0 637 41.4a3.01 3.01 0 0 0 3.017 3.003h6.599v7.794l.011.247a3.01 3.01 0 0 0 2.995 2.769 3.01 3.01 0 0 0 3.004-3.016v-7.795h7.803l.246-.01a3.01 3.01 0 0 0 2.772-2.992 3.01 3.01 0 0 0-3.018-3.002h-7.803l.002-6.595-.011-.247a3.01 3.01 0 0 0-2.995-2.769 3.01 3.01 0 0 0-3.006 3.016v6.594h-6.599z" opacity=".2"/><path fill="#F1F1F4" fill-rule="evenodd" d="M229.729 165.722a2.426 2.426 0 0 1 1.611 2.866l-.054.193-1.632 5.062 5.059 1.631a2.43 2.43 0 0 1 1.569 3.053 2.426 2.426 0 0 1-2.864 1.613l-.192-.053-5.059-1.633-1.93 5.986a2.426 2.426 0 0 1-3.049 1.573 2.425 2.425 0 0 1-1.612-2.865l.053-.193 1.93-5.987-5.98-1.928a2.425 2.425 0 0 1-1.569-3.05 2.425 2.425 0 0 1 2.864-1.614l.192.054 5.98 1.927 1.633-5.062a2.427 2.427 0 0 1 3.05-1.573" clip-rule="evenodd"/><path fill="#F1F1F4" fill-opacity=".7" d="M269.028 154.56a4.947 4.947 0 0 1 6.225-3.193 4.947 4.947 0 0 1 3.187 6.228 4.947 4.947 0 0 1-6.225 3.192 4.946 4.946 0 0 1-3.187-6.227"/></g><defs><linearGradient id="paint0_linear_8002_187500" x1="732.79" x2="196.832" y1="24.772" y2="530.63" gradientUnits="userSpaceOnUse"><stop stop-color="#6123DF"/><stop offset="1" stop-color="#280078"/></linearGradient><clipPath id="clip0_8002_187500"><rect width="826" height="181" fill="#fff" rx="8"/></clipPath></defs></svg>
